X:22
T:Borscht
M:C|
C:© Paul Gitlitz 2009
K:Dm
"Dm"DFAd {cd}c2A2|A,DFA {Bc}B2A2|"Gm"b2g2"Dm"a2f2|"C"g2e2 "Dm"fedc|!
"Dm"DFAd {cd}c2A2|A,DFA {Bc}B2A2|"Bb"d2b2"F"c2a2|"Gm"B2g2"Dm"f4:|!
|:"Bb"B2d2 cBAG|"Dm"F2E2"Am"E2D2|"Edim"^C3D "C"EGFE|"Dm"D2F2"Dm/A"A2d2|!
"Bb"B3D "F"FAcA|"Bb"B2A2"G#dim"^G2A2|1"Bb"Bfed "F"cBA^G|"Dm"A8:|2"C"FEGE "Dm"FED^C|"Dm"D8|]
